X:1
T:Wavertree, 88.88.88
T:William Shore, 1840
T:Wavertree, 88.88.88
T:Public Domain
C:William Shore, 1840
Z:Public Domain
%%score ( 1 2 ) ( 3 4 )
L:1/8
M:3/4
K:D
V:1 treble 
V:2 treble 
V:3 bass 
V:4 bass 
V:1
 x6 |: [DF]2 [DF]2 [DF]2 | (A2 G2) [DG]2 | [DG]2 [A,F]2 [CE]2 | D6 | [GB]2 [GB]2 [GB]2 | %6
 G2 F2 [FA]2 | A2 G2 [DF]2 | D2 C4 :| [Ec]2 [Ec]2 [Ec]2 | [Dd]4 [DF]2 | E4 [^DF]2 | [EG]6 | %13
 [EG]2 [EG]2 [DF]2 | D2 G2 [EG]2 | [DF]4 [CE]2 | D6 |] %17
V:2
 x6 |: x6 | D4 x2 | x6 | D6 | x6 | A4 x2 | E4 x2 | E6 :| x6 | x6 | E4 x2 | x6 | x6 | B4 x2 | x6 | %16
 D6 |] %17
V:3
 x6 |: [D,A,]2 [D,A,]2 [D,^A,]2 | [D,B,]4 [D,_B,]2 | [D,A,]4 [D,G,]2 | [D,F,]6 | %5
 (G,,F,,) (G,,A,,) (B,,C,) | D2 A,2 [^D,=C]2 | [E,B,]4 F,G, | A,6 :| A,2 A,2 [G,A,]2 | %10
 [F,A,]4 [D,A,]2 | [G,B,]4 [F,B,]2 | [E,B,]6 | [C,A,]2 [C,A,]2 [C,A,]2 | G,2 B,2 [G,,B,]2 | %15
 [A,,A,]4 [A,,G,]2 | [D,F,]6 |] %17
V:4
 x6 |: x6 | x6 | x6 | x6 | D2 D2 D2 | B,,4 x2 | x4 D2 | A,6 :| A,2 A,2 x2 | x6 | x6 | x6 | x6 | %14
 G,,4 x2 | x6 | x6 |] %17

